X: 036
T: Black Dance
B: 204 Favourite Country Dances
N: Published by Straight & Skillern, London ca.1775
F: http://imslp.org/wiki/204_Favourite_Country_Dances_(Various) p.18 #36
Z: 2014 John Chambers <jc:trillian.mit.edu>
N: This version of the tune is only 12 bars long. The only double bar or repeat is at the very end.
M: 2/4
L: 1/16
K: G
% - - - - - - - - - - - - - - - - - - - - - - - - -
dB |\
G2G2 ABcA | dedc B2dB |\
G2G2 ABcA | dedc B2ef |\
g2g2 {a}g2fe | d2d2 d2cB |
A2AB {d}c2BA | G2G2 G2ef |\
g2g2 g2fe | d2d2 d2cB |\
A2AB {d}c2BA | G2G2G2 :|
% - - - - - - - - - - - - - - - - - - - - - - - - -
%%begintext align
%% 1st & 2d Cu. hands across half round the
%% same back again .| 1st Man leads his Part:
%% down the middle & brings up the 3d Wo.
%% & leaves his Part: in her place :| then the
%% top Cu. & 3d turns first right hands
%% behind then left :|. & the 1st Man lead the
%% 3d Wo. down to her own place & bring
%% his Part: up to the top & cast off into
%% the 2d Cu.s place :|:
%%endtext

%%sep 1 1 500
%%sep 1 1 500
